icons/comment-discussion-17.svg

<svg width="16" height="17" viewBox="0 0 16 17" fill="none" xmlns="http://www.w3.org/2000/svg">
<path fill-rule="evenodd" clip-rule="evenodd" d="M3.125 4.66296C3.125 4.61324 3.14476 4.56555 3.17991 4.53038C3.21508 4.49522 3.26277 4.47546 3.3125 4.47546H9.6875C9.73723 4.47546 9.78492 4.49522 9.8201 4.53038C9.85527 4.56555 9.875 4.61324 9.875 4.66296V8.78796C9.875 8.83769 9.85527 8.88538 9.8201 8.92055C9.78492 8.95571 9.73723 8.97546 9.6875 8.97546H7.0625C6.91336 8.97559 6.77039 9.03495 6.665 9.14046L4.625 11.1805V9.53796C4.625 9.38878 4.56573 9.2457 4.46025 9.14022C4.35476 9.03473 4.21168 8.97546 4.0625 8.97546H3.3125C3.26277 8.97546 3.21508 8.95571 3.17991 8.92055C3.14476 8.88538 3.125 8.83769 3.125 8.78796V4.66296ZM3.3125 3.35046C2.9644 3.35046 2.63056 3.48874 2.38442 3.73488C2.13828 3.98103 2 4.31487 2 4.66296V8.78796C2 9.51246 2.588 10.1005 3.3125 10.1005H3.5V11.2577C3.50007 11.4738 3.56421 11.685 3.68428 11.8646C3.80436 12.0442 3.975 12.1843 4.17462 12.2669C4.37425 12.3496 4.5939 12.3712 4.80583 12.3291C5.01775 12.2869 5.21243 12.183 5.36525 12.0302L7.29575 10.1005H9.6875C10.0356 10.1005 10.3694 9.96219 10.6156 9.71604C10.8617 9.4699 11 9.13606 11 8.78796V4.66296C11 4.31487 10.8617 3.98103 10.6156 3.73488C10.3694 3.48874 10.0356 3.35046 9.6875 3.35046H3.3125ZM12.875 6.16296C12.875 6.11324 12.8553 6.06555 12.8201 6.03038C12.7849 5.99522 12.7372 5.97546 12.6875 5.97546H12.3125C12.1633 5.97546 12.0202 5.9162 11.9148 5.81071C11.8092 5.70522 11.75 5.56215 11.75 5.41296C11.75 5.26378 11.8092 5.1207 11.9148 5.01522C12.0202 4.90973 12.1633 4.85046 12.3125 4.85046H12.6875C13.412 4.85046 14 5.43846 14 6.16296V10.288C14 10.636 13.8617 10.9699 13.6156 11.216C13.3694 11.4622 13.0356 11.6005 12.6875 11.6005H12.5V12.7577C12.4999 12.9738 12.4358 13.185 12.3157 13.3646C12.1957 13.5442 12.025 13.6843 11.8254 13.7669C11.6257 13.8496 11.4061 13.8712 11.1942 13.8291C10.9822 13.7869 10.7876 13.683 10.6347 13.5302L8.915 11.8105C8.85973 11.7589 8.81541 11.6968 8.78467 11.6278C8.75392 11.5588 8.73738 11.4844 8.73606 11.4088C8.73472 11.3333 8.74862 11.2583 8.77691 11.1883C8.8052 11.1182 8.84731 11.0546 8.90072 11.0012C8.95413 10.9477 9.01776 10.9057 9.0878 10.8774C9.15784 10.8491 9.23287 10.8352 9.30839 10.8365C9.38392 10.8379 9.45841 10.8544 9.52738 10.8851C9.59637 10.9159 9.65847 10.9602 9.71 11.0155L11.375 12.6805V11.038C11.375 10.8888 11.4342 10.7457 11.5398 10.6402C11.6452 10.5347 11.7883 10.4755 11.9375 10.4755H12.6875C12.7372 10.4755 12.7849 10.4557 12.8201 10.4206C12.8553 10.3854 12.875 10.3377 12.875 10.288V6.16296Z" fill="#272431"/>
</svg>

<svg xmlns="http://www.w3.org/2000/svg" width="16" height="17" viewBox="0 0 16 17"><path fill-rule="evenodd" d="M3.125 4.663a.188.188 0 01.188-.188h6.374a.188.188 0 01.188.188v4.125a.187.187 0 01-.188.187H7.063c-.15 0-.293.06-.398.165l-2.04 2.04V9.539a.563.563 0 00-.563-.563h-.75a.188.188 0 01-.187-.187V4.663zm.188-1.313A1.313 1.313 0 002 4.663v4.125c0 .724.588 1.313 1.313 1.313H3.5v1.157a1.093 1.093 0 001.865.772l1.93-1.93h2.393A1.313 1.313 0 0011 8.789V4.663A1.313 1.313 0 009.687 3.35H3.314zm9.562 2.813a.187.187 0 00-.188-.188h-.374a.562.562 0 110-1.125h.374c.725 0 1.313.588 1.313 1.313v4.125a1.313 1.313 0 01-1.313 1.313H12.5v1.157a1.093 1.093 0 01-1.865.772l-1.72-1.72a.564.564 0 01.612-.925c.07.03.131.075.183.13l1.665 1.665v-1.642a.562.562 0 01.563-.563h.75a.188.188 0 00.187-.187V6.163z"/></svg>
